chrome/img/svgs/arrow-start.svg

<?xml version="1.0" encoding="UTF-8"?>
<svg width="791px" height="937px" viewBox="0 0 791 937" version="1.1" xmlns="http://www.w3.org/2000/svg" xmlns:xlink="http://www.w3.org/1999/xlink">
    <!-- Generator: Sketch 42 (36781) - http://www.bohemiancoding.com/sketch -->
    <title>Shape</title>
    <desc>Created with Sketch.</desc>
    <defs>
        <radialGradient cx="86.6419409%" cy="25.3141152%" fx="86.6419409%" fy="25.3141152%" r="107.476011%" id="radialGradient-1">
            <stop stop-color="#31A217" offset="0%"></stop>
            <stop stop-color="#337A23" offset="100%"></stop>
        </radialGradient>
        <path d="M482.699214,252.072692 C471.785388,254.877484 463.599768,265.803055 464.050409,276.966002 C464.501424,288.128948 473.541225,298.372373 484.646327,300.30262 L629.896444,325.769381 C472.342848,466.07182 198.002772,600.920206 -56.8776036,547.481736 C-64.8840621,548.428637 -64.5358061,541.672519 -68.5116143,553.996113 C-72.4875474,566.319706 -13.5628433,795.557517 -0.462088296,793.046218 C362.735871,723.424367 518.023101,578.825705 717.903318,411.041677 L737.763244,549.944469 C739.27221,561.086177 749.36084,570.485041 760.676583,571.293371 C771.9922,572.092955 783.335678,564.229543 786.439565,553.416414 L892.501037,186.483973 C895.046464,177.927171 891.683962,168.633253 885.405601,162.339025 C878.048425,155.682485 870.255726,155.94235 862.126952,155.616269 L482.699214,252.072692 Z" id="path-2"></path>
        <filter x="-50%" y="-50%" width="200%" height="200%" filterUnits="objectBoundingBox" id="filter-3">
            <feOffset dx="-1" dy="8" in="SourceAlpha" result="shadowOffsetOuter1"></feOffset>
            <feColorMatrix values="0 0 0 0 0   0 0 0 0 0   0 0 0 0 0  0 0 0 1 0" type="matrix" in="shadowOffsetOuter1"></feColorMatrix>
        </filter>
    </defs>
    <g id="Playground" stroke="none" stroke-width="1" fill="none" fill-rule="evenodd">
        <g id="Shape" fill-rule="nonzero" transform="translate(412.326271, 474.341485) rotate(-23.000000) translate(-412.326271, -474.341485) ">
            <use fill="black" fill-opacity="1" filter="url(#filter-3)" xlink:href="#path-2"></use>
            <use fill="url(#radialGradient-1)" fill-rule="evenodd" xlink:href="#path-2"></use>
        </g>
    </g>
</svg>

<svg width="791" height="937" viewBox="0 0 791 937" xmlns="http://www.w3.org/2000/svg" xmlns:xlink="http://www.w3.org/1999/xlink"><title>Shape</title><defs><radialGradient cx="86.642%" cy="25.314%" fx="86.642%" fy="25.314%" r="107.476%" id="c"><stop stop-color="#31A217" offset="0%"/><stop stop-color="#337A23" offset="100%"/></radialGradient><path d="M482.7 252.073c-10.915 2.804-19.1 13.73-18.65 24.893.451 11.163 9.491 21.406 20.596 23.337l145.25 25.466C472.343 466.072 198.003 600.92-56.878 547.482c-8.006.947-7.658-5.81-11.634 6.514s54.95 241.562 68.05 239.05c363.198-69.622 518.485-214.22 718.365-382.004l19.86 138.902c1.51 11.142 11.598 20.541 22.914 21.35 11.315.799 22.659-7.064 25.763-17.878L892.5 186.484c2.545-8.557-.817-17.85-7.095-24.145-7.358-6.657-15.15-6.397-23.279-6.723l-379.428 96.457z" id="b"/><filter x="-50%" y="-50%" width="200%" height="200%" filterUnits="objectBoundingBox" id="a"><feOffset dx="-1" dy="8" in="SourceAlpha" result="shadowOffsetOuter1"/><feColorMatrix values="0 0 0 0 0 0 0 0 0 0 0 0 0 0 0 0 0 0 1 0" in="shadowOffsetOuter1"/></filter></defs><g fill-rule="nonzero" transform="rotate(-23 412.326 474.341)" fill="none"><use fill="#000" filter="url(#a)" xlink:href="#b"/><use fill="url(#c)" fill-rule="evenodd" xlink:href="#b"/></g></svg>
